src/assets/icons/ico-touch-mode.svg

<svg width="24" height="24" viewBox="0 0 24 24" fill="none" xmlns="http://www.w3.org/2000/svg">
<path fill-rule="evenodd" clip-rule="evenodd" d="M7.4331 0.5C5.91449 0.5 4.68283 1.73166 4.68283 3.25027C4.68283 4.76889 5.91449 6.00055 7.4331 6.00055H10.3407C10.9622 6.00055 11.4666 6.50495 11.4666 7.12644C11.4666 7.74794 10.9622 8.25234 10.3407 8.25234H7.4798C7.41331 8.25234 7.34868 8.26033 7.28683 8.2754C6.77662 7.83125 6.13593 7.60184 5.48422 7.60844C4.69335 7.60149 3.92204 7.94144 3.37824 8.58463L3.3775 8.5855C2.40829 9.73514 2.63778 11.3954 3.61705 12.3747L9.00706 17.7647C8.2663 17.7824 7.56691 18.0865 7.04855 18.6048C6.493 19.1604 6.20761 19.9033 6.20761 20.6319C6.20761 21.3609 6.49423 22.1047 7.04855 22.659C7.58288 23.1934 8.30958 23.5 9.07565 23.5H16.4493C16.8979 23.5 17.2615 23.1363 17.2615 22.6878C17.2615 22.2392 16.8979 21.8756 16.4493 21.8756H9.07565C8.74528 21.8756 8.43034 21.7436 8.19716 21.5104C7.95756 21.2708 7.83199 20.9446 7.83199 20.6319C7.83199 20.319 7.95676 19.9938 8.19716 19.7534C8.43034 19.5203 8.74528 19.3883 9.07565 19.3883H12.9278L4.76566 11.2261C4.29738 10.7578 4.26885 10.0489 4.61905 9.63296C4.85037 9.35961 5.16259 9.2288 5.47433 9.2328L5.48532 9.23294L5.4963 9.23279C5.77909 9.22877 6.06024 9.33605 6.28026 9.55665L10.8908 14.1672L15.5914 10.642C16.0396 10.3059 16.6674 10.3508 17.0628 10.7463C18.8956 12.579 20.2771 14.8135 21.0971 17.2735L21.0984 17.2772L21.1623 17.4661C21.3062 17.8909 21.7673 18.1187 22.1921 17.9748C22.617 17.8309 22.8447 17.3698 22.7008 16.945L22.6381 16.7598L22.6376 16.7582C21.7377 14.0595 20.222 11.6082 18.2114 9.59766C17.2444 8.63066 15.7118 8.52132 14.6168 9.34251L11.0433 12.0225L8.89754 9.87672H10.3407C11.8594 9.87672 13.091 8.64506 13.091 7.12644C13.091 5.60783 11.8594 4.37617 10.3407 4.37617H7.4331C6.8116 4.37617 6.30721 3.87177 6.30721 3.25027C6.30721 2.62877 6.8116 2.12438 7.4331 2.12438H12.2788C12.7274 2.12438 13.091 1.76075 13.091 1.31219C13.091 0.863629 12.7274 0.5 12.2788 0.5H7.4331Z" fill="#353B45"/>
</svg>

<svg width="24" height="24" fill="none" xmlns="http://www.w3.org/2000/svg"><path fill-rule="evenodd" clip-rule="evenodd" d="M7.4331.5C5.9145.5 4.6828 1.7317 4.6828 3.2503c0 1.5186 1.2317 2.7502 2.7503 2.7502h2.9076c.6215 0 1.1259.5045 1.1259 1.126 0 .6214-.5044 1.1258-1.1259 1.1258H7.4798a.8143.8143 0 0 0-.193.0231c-.5102-.4441-1.1509-.6736-1.8026-.667-.7909-.007-1.5622.333-2.106.9762l-.0007.0009c-.9692 1.1496-.7397 2.8099.2395 3.7892l5.39 5.39a2.8665 2.8665 0 0 0-1.9585.8401 2.8785 2.8785 0 0 0-.8409 2.0271c0 .729.2866 1.4728.841 2.0271a2.8658 2.8658 0 0 0 2.027.841h7.3737a.8122.8122 0 0 0 0-1.6244H9.0756c-.3303 0-.6453-.132-.8784-.3652-.2396-.2396-.3652-.5658-.3652-.8785 0-.3129.1248-.6381.3652-.8785a1.2419 1.2419 0 0 1 .8784-.3651h3.8522l-8.1621-8.1622c-.4683-.4683-.4969-1.1772-.1467-1.5931.2314-.2734.5436-.4042.8553-.4002l.011.0001.011-.0001c.2828-.004.564.1033.784.3239l4.6105 4.6105 4.7006-3.5252a1.1263 1.1263 0 0 1 1.4714.1043 16.698 16.698 0 0 1 4.0343 6.5272l.0013.0037.0639.1889a.8122.8122 0 0 0 1.5385-.5211l-.0627-.1852-.0005-.0016a18.3235 18.3235 0 0 0-4.4262-7.1605c-.967-.967-2.4996-1.0764-3.5946-.2552l-3.5735 2.68-2.1458-2.1458h1.4432c1.5187 0 2.7503-1.2316 2.7503-2.7503 0-1.5186-1.2316-2.7502-2.7503-2.7502H7.4331c-.6215 0-1.1259-.5044-1.1259-1.126 0-.6214.5044-1.1258 1.1259-1.1258h4.8457a.8122.8122 0 1 0 0-1.6244H7.4331Z" fill="#353B45"/></svg>
